X:8
T:Miss Silvie's Delight
Z:Rutherford Volume III  circa 1775
R:reel
M:C
L:1/8
S: "nickthefiddle" <nickthefiddle:worldonline.co.uk> tradtunes 200907-6
K:F
A2 | G/G/G BG dGBG | F/F/F AF cFAF |  G/G/G BG dGBG | DdcA G/G/G G :|
|: f | gdBd gbgd |  fcAc fafc | gdBd gbgd | cAFA G/G/G G :|
